X: 717
T: Fandui xiyu shijian
L: 1/8
M: 2/4
K: A
A A C B,/ C/ [I:setbarnb 1]| 
E EE2 | 
B e d c/ B/ | 
A4 | 
B e d c/ e/ | 
B B B e | 
A G/ F/E2 | 
c B/ c/ E D | 
E4 |]

@@@ Tune index: 9591
